X: 654
T: Ado Barker's
R: barndance
M: 4/4
K: Aminor
A3B cB A2|Bc d2 Bc d2|A3B cBAG|EGAB A4|
A3B cB A2|Bc d2 Bc d2|A3B cBAG|EGAB A4||
e4 d4|cdcB A4|a3b bage|g3a ge d2|
e4 d4|cdcB A3B|cBAG EGAB|A4 A4||

